;Sliced by ideaMaker 4.3.2.6470, 2023-05-09 12:08:04 UTC-0700
;Dimension: 300.000 300.000 380.000 0.400
;Plate Shape: 0
;Origin Center: 0
;Extruder Offset #1: 25.000 0.000
;Filament Diameter #1: 1.750
;Filament Diameter #2: 1.750
;Filament Compensation #1: 95.10
;Filament Compensation #2: 90.00
;Filament Density #1: 1240.00
;Filament Density #2: 1240.00
;Filament Type #1: PLA
;Filament Type #2: 
;Filament Name #1: PLA
;Filament Name #2: 
;Firmware: Marlin
;Bounding Box: 15.000 285.000 15.000 285.000 0.000 0.200
;Model Gap: 0.000
;
;
M221  S95.10
M140 S70.00
M104  S210.00
M109  S210.00

M190 S70.00
PRINT_START
SET_PRESSURE_ADVANCE ADVANCE=0.068
;end of Start GCode
;TOTAL_NUM: 1
;PRINTING_TIME: 0
;REMAINING_TIME: 786
;LAYER:0
;Z:0.200
;HEIGHT:0.200
M106 S0
;PRINTING: 300x300 level_test.STL
;PRINTING_ID: 0
G1 F2100 E-1.0000
M204 S800.00
G0 F7200 X15.910 Y44.090
G0 F900 Z0.200
M204 S600.00
;TYPE:WALL-INNER
;WIDTH:0.440
G1 F2100 E0.0000
G1 F1500 X15.910 Y15.910 E1.0310
G1 X44.090 Y15.910 E2.0620
G1 X44.090 Y44.090 E3.0930
G1 X15.910 Y44.090 E4.1240
M204 S800.00
G0 F7200 X15.470 Y44.530
M204 S600.00
;TYPE:WALL-OUTER
;WIDTH:0.440
G1 F1500 X15.470 Y15.470 E5.1872
G1 X44.530 Y15.470 E6.2504
G1 X44.530 Y44.530 E7.3136
G1 X15.470 Y44.530 E8.3768
M204 S800.00
G0 F7200 X16.310 Y44.001
;TYPE:SOLID-FILL
;WIDTH:0.440
G1 F1500 X15.997 Y43.687 E8.3930
G0 F7200 X15.997 Y43.065
G1 F1500 X16.933 Y44.001 E8.4414
G0 F7200 X17.555 Y44.001
G1 F1500 X15.997 Y42.443 E8.5220
G0 F7200 X15.997 Y41.821
G1 F1500 X18.177 Y44.001 E8.6348
G0 F7200 X18.799 Y44.001
G1 F1500 X15.997 Y41.198 E8.7798
G0 F7200 X15.997 Y40.576
G1 F1500 X19.422 Y44.001 E8.9570
G0 F7200 X20.044 Y44.001
G1 F1500 X15.997 Y39.954 E9.1664
G0 F7200 X15.997 Y39.332
G1 F1500 X20.666 Y44.001 E9.4080
G0 F7200 X21.288 Y44.001
G1 F1500 X15.997 Y38.709 E9.6818
G0 F7200 X15.997 Y38.087
G1 F1500 X21.911 Y44.001 E9.9878
G0 F7200 X22.533 Y44.001
G1 F1500 X15.997 Y37.465 E10.3260
G0 F7200 X15.997 Y36.843
G1 F1500 X23.155 Y44.001 E10.6963
G0 F7200 X23.777 Y44.001
G1 F1500 X15.997 Y36.220 E11.0989
G0 F7200 X15.997 Y35.598
G1 F1500 X24.400 Y44.001 E11.5337
G0 F7200 X25.022 Y44.001
G1 F1500 X15.997 Y34.976 E12.0006
G0 F7200 X15.997 Y34.354
G1 F1500 X25.644 Y44.001 E12.4998
G0 F7200 X26.266 Y44.001
G1 F1500 X15.997 Y33.731 E13.0311
G0 F7200 X15.997 Y33.109
G1 F1500 X26.889 Y44.001 E13.5947
G0 F7200 X27.511 Y44.001
G1 F1500 X15.997 Y32.487 E14.1904
G0 F7200 X15.997 Y31.865
G1 F1500 X28.133 Y44.001 E14.8183
G0 F7200 X28.755 Y44.001
G1 F1500 X15.997 Y31.242 E15.4785
G0 F7200 X15.997 Y30.620
G1 F1500 X29.378 Y44.001 E16.1708
G0 F7200 X30.000 Y44.001
G1 F1500 X15.997 Y29.998 E16.8953
G0 F7200 X15.997 Y29.376
G1 F1500 X30.622 Y44.001 E17.6520
G0 F7200 X31.244 Y44.001
G1 F1500 X15.997 Y28.753 E18.4410
G0 F7200 X15.997 Y28.131
G1 F1500 X31.867 Y44.001 E19.2621
G0 F7200 X32.489 Y44.001
G1 F1500 X15.997 Y27.509 E20.1154
G0 F7200 X15.997 Y26.887
G1 F1500 X33.111 Y44.001 E21.0009
G0 F7200 X33.733 Y44.001
G1 F1500 X15.997 Y26.264 E21.9186
G0 F7200 X15.997 Y25.642
G1 F1500 X34.356 Y44.001 E22.8685
G0 F7200 X34.978 Y44.001
G1 F1500 X15.997 Y25.020 E23.8506
G0 F7200 X15.997 Y24.398
G1 F1500 X35.600 Y44.001 E24.8648
G0 F7200 X36.222 Y44.001
G1 F1500 X15.997 Y23.775 E25.9113
G0 F7200 X15.997 Y23.153
G1 F1500 X36.845 Y44.001 E26.9900
G0 F7200 X37.467 Y44.001
G1 F1500 X15.997 Y22.531 E28.1009
G0 F7200 X15.997 Y21.908
G1 F1500 X38.089 Y44.001 E29.2440
G0 F7200 X38.711 Y44.001
G1 F1500 X15.997 Y21.286 E30.4192
G0 F7200 X15.997 Y20.664
G1 F1500 X39.334 Y44.001 E31.6267
G0 F7200 X39.956 Y44.001
G1 F1500 X15.997 Y20.042 E32.8664
G0 F7200 X15.997 Y19.419
G1 F1500 X40.578 Y44.001 E34.1382
G0 F7200 X41.200 Y44.001
G1 F1500 X15.997 Y18.797 E35.4423
G0 F7200 X15.997 Y18.175
G1 F1500 X41.823 Y44.001 E36.7785
G0 F7200 X42.445 Y44.001
G1 F1500 X15.997 Y17.553 E38.1470
G0 F7200 X15.997 Y16.930
G1 F1500 X43.067 Y44.001 E39.5476
G0 F7200 X43.690 Y44.001
G1 F1500 X15.997 Y16.308 E40.9804
G0 F7200 X16.309 Y15.998
G1 F1500 X44.001 Y43.690 E42.4132
G0 F7200 X44.001 Y43.068
G1 F1500 X16.931 Y15.998 E43.8139
G0 F7200 X17.553 Y15.998
G1 F1500 X44.001 Y42.446 E45.1823
G0 F7200 X44.001 Y41.823
G1 F1500 X18.176 Y15.998 E46.5185
G0 F7200 X18.798 Y15.998
G1 F1500 X44.001 Y41.201 E47.8225
G0 F7200 X44.001 Y40.579
G1 F1500 X19.420 Y15.998 E49.0944
G0 F7200 X20.042 Y15.998
G1 F1500 X44.001 Y39.957 E50.3340
G0 F7200 X44.001 Y39.334
G1 F1500 X20.665 Y15.998 E51.5414
G0 F7200 X21.287 Y15.998
G1 F1500 X44.001 Y38.712 E52.7167
G0 F7200 X44.001 Y38.090
G1 F1500 X21.909 Y15.998 E53.8597
G0 F7200 X22.531 Y15.998
G1 F1500 X44.001 Y37.468 E54.9706
G0 F7200 X44.001 Y36.845
G1 F1500 X23.154 Y15.998 E56.0492
G0 F7200 X23.776 Y15.998
G1 F1500 X44.001 Y36.223 E57.0957
G0 F7200 X44.001 Y35.601
G1 F1500 X24.398 Y15.998 E58.1100
G0 F7200 X25.020 Y15.998
G1 F1500 X44.001 Y34.979 E59.0920
G0 F7200 X44.001 Y34.356
G1 F1500 X25.643 Y15.998 E60.0419
G0 F7200 X26.265 Y15.998
G1 F1500 X44.001 Y33.734 E60.9596
G0 F7200 X44.001 Y33.112
G1 F1500 X26.887 Y15.998 E61.8451
G0 F7200 X27.509 Y15.998
G1 F1500 X44.001 Y32.490 E62.6984
G0 F7200 X44.001 Y31.867
G1 F1500 X28.132 Y15.998 E63.5194
G0 F7200 X28.754 Y15.998
G1 F1500 X44.001 Y31.245 E64.3083
G0 F7200 X44.001 Y30.623
G1 F1500 X29.376 Y15.998 E65.0650
G0 F7200 X29.999 Y15.998
G1 F1500 X44.001 Y30.001 E65.7895
G0 F7200 X44.001 Y29.378
G1 F1500 X30.621 Y15.998 E66.4818
G0 F7200 X31.243 Y15.998
G1 F1500 X44.001 Y28.756 E67.1419
G0 F7200 X44.001 Y28.134
G1 F1500 X31.865 Y15.998 E67.7699
G0 F7200 X32.488 Y15.998
G1 F1500 X44.001 Y27.512 E68.3656
G0 F7200 X44.001 Y26.889
G1 F1500 X33.110 Y15.998 E68.9291
G0 F7200 X33.732 Y15.998
G1 F1500 X44.001 Y26.267 E69.4604
G0 F7200 X44.001 Y25.645
G1 F1500 X34.354 Y15.998 E69.9595
G0 F7200 X34.977 Y15.998
G1 F1500 X44.001 Y25.023 E70.4265
G0 F7200 X44.001 Y24.400
G1 F1500 X35.599 Y15.998 E70.8612
G0 F7200 X36.221 Y15.998
G1 F1500 X44.001 Y23.778 E71.2637
G0 F7200 X44.001 Y23.156
G1 F1500 X36.843 Y15.998 E71.6341
G0 F7200 X37.466 Y15.998
G1 F1500 X44.001 Y22.534 E71.9723
G0 F7200 X44.001 Y21.911
G1 F1500 X38.088 Y15.998 E72.2782
G0 F7200 X38.710 Y15.998
G1 F1500 X44.001 Y21.289 E72.5520
G0 F7200 X44.001 Y20.667
G1 F1500 X39.332 Y15.998 E72.7935
G0 F7200 X39.955 Y15.998
G1 F1500 X44.001 Y20.045 E73.0029
G0 F7200 X44.001 Y19.422
G1 F1500 X40.577 Y15.998 E73.1801
G0 F7200 X41.199 Y15.998
G1 F1500 X44.001 Y18.800 E73.3250
G0 F7200 X44.001 Y18.178
G1 F1500 X41.821 Y15.998 E73.4378
G0 F7200 X42.444 Y15.998
G1 F1500 X44.001 Y17.556 E73.5184
G0 F7200 X44.001 Y16.933
G1 F1500 X43.066 Y15.998 E73.5668
G0 F7200 X43.688 Y15.998
G1 F1500 X44.001 Y16.311 E73.5830
G1 F2100 E72.5830
G1 F900 Z0.400
G0 F7200 X15.910 Y164.090
M204 S600.00
;TYPE:WALL-INNER
;WIDTH:0.440
G1 F900 Z0.200
G1 F2100 E73.5830
G1 F1500 X15.910 Y135.910 E74.6140
G1 X44.090 Y135.910 E75.6450
G1 X44.090 Y164.090 E76.6760
G1 X15.910 Y164.090 E77.7070
M204 S800.00
G0 F7200 X15.470 Y164.530
M204 S600.00
;TYPE:WALL-OUTER
;WIDTH:0.440
G1 F1500 X15.470 Y135.470 E78.7702
G1 X44.530 Y135.470 E79.8334
G1 X44.530 Y164.530 E80.8966
G1 X15.470 Y164.530 E81.9598
M204 S800.00
G0 F7200 X16.216 Y164.001
;TYPE:SOLID-FILL
;WIDTH:0.440
G1 F1500 X15.998 Y163.783 E81.9710
G0 F7200 X15.998 Y163.161
G1 F1500 X16.838 Y164.001 E82.0145
G0 F7200 X17.460 Y164.001
G1 F1500 X15.998 Y162.539 E82.0901
G0 F7200 X15.998 Y161.916
G1 F1500 X18.082 Y164.001 E82.1980
G0 F7200 X18.705 Y164.001
G1 F1500 X15.998 Y161.294 E82.3381
G0 F7200 X15.998 Y160.672
G1 F1500 X19.327 Y164.001 E82.5103
G0 F7200 X19.949 Y164.001
G1 F1500 X15.998 Y160.050 E82.7147
G0 F7200 X15.998 Y159.427
G1 F1500 X20.571 Y164.001 E82.9514
G0 F7200 X21.194 Y164.001
G1 F1500 X15.998 Y158.805 E83.2202
G0 F7200 X15.998 Y158.183
G1 F1500 X21.816 Y164.001 E83.5212
G0 F7200 X22.438 Y164.001
G1 F1500 X15.998 Y157.561 E83.8544
G0 F7200 X15.998 Y156.938
G1 F1500 X23.060 Y164.001 E84.2199
G0 F7200 X23.683 Y164.001
G1 F1500 X15.998 Y156.316 E84.6175
G0 F7200 X15.998 Y155.694
G1 F1500 X24.305 Y164.001 E85.0473
G0 F7200 X24.927 Y164.001
G1 F1500 X15.998 Y155.072 E85.5093
G0 F7200 X15.998 Y154.449
G1 F1500 X25.549 Y164.001 E86.0035
G0 F7200 X26.172 Y164.001
G1 F1500 X15.998 Y153.827 E86.5299
G0 F7200 X15.998 Y153.205
G1 F1500 X26.794 Y164.001 E87.0885
G0 F7200 X27.416 Y164.001
G1 F1500 X15.998 Y152.583 E87.6793
G0 F7200 X15.998 Y151.960
G1 F1500 X28.038 Y164.001 E88.3023
G0 F7200 X28.661 Y164.001
G1 F1500 X15.998 Y151.338 E88.9574
G0 F7200 X15.998 Y150.716
G1 F1500 X29.283 Y164.001 E89.6448
G0 F7200 X29.905 Y164.001
G1 F1500 X15.998 Y150.094 E90.3644
G0 F7200 X15.998 Y149.471
G1 F1500 X30.527 Y164.001 E91.1161
G0 F7200 X31.150 Y164.001
G1 F1500 X15.998 Y148.849 E91.9001
G0 F7200 X15.998 Y148.227
G1 F1500 X31.772 Y164.001 E92.7163
G0 F7200 X32.394 Y164.001
G1 F1500 X15.998 Y147.605 E93.5646
G0 F7200 X15.998 Y146.982
G1 F1500 X33.016 Y164.001 E94.4452
G0 F7200 X33.639 Y164.001
G1 F1500 X15.998 Y146.360 E95.3579
G0 F7200 X15.998 Y145.738
G1 F1500 X34.261 Y164.001 E96.3029
G0 F7200 X34.883 Y164.001
G1 F1500 X15.998 Y145.115 E97.2800
G0 F7200 X15.998 Y144.493
G1 F1500 X35.505 Y164.001 E98.2893
G0 F7200 X36.128 Y164.001
G1 F1500 X15.998 Y143.871 E99.3309
G0 F7200 X15.998 Y143.249
G1 F1500 X36.750 Y164.001 E100.4046
G0 F7200 X37.372 Y164.001
G1 F1500 X15.998 Y142.626 E101.5105
G0 F7200 X15.998 Y142.004
G1 F1500 X37.994 Y164.001 E102.6486
G0 F7200 X38.617 Y164.001
G1 F1500 X15.998 Y141.382 E103.8190
G0 F7200 X15.998 Y140.760
G1 F1500 X39.239 Y164.001 E105.0215
G0 F7200 X39.861 Y164.001
G1 F1500 X15.998 Y140.137 E106.2562
G0 F7200 X15.998 Y139.515
G1 F1500 X40.483 Y164.001 E107.5231
G0 F7200 X41.106 Y164.001
G1 F1500 X15.998 Y138.893 E108.8222
G0 F7200 X15.998 Y138.271
G1 F1500 X41.728 Y164.001 E110.1535
G0 F7200 X42.350 Y164.001
G1 F1500 X15.998 Y137.648 E111.5170
G0 F7200 X15.998 Y137.026
G1 F1500 X42.973 Y164.001 E112.9127
G0 F7200 X43.595 Y164.001
G1 F1500 X15.998 Y136.404 E114.3405
G0 F7200 X16.213 Y135.997
G1 F1500 X44.002 Y163.786 E115.7784
G0 F7200 X44.002 Y163.164
G1 F1500 X16.835 Y135.997 E117.1840
G0 F7200 X17.457 Y135.997
G1 F1500 X44.002 Y162.541 E118.5574
G0 F7200 X44.002 Y161.919
G1 F1500 X18.080 Y135.997 E119.8987
G0 F7200 X18.702 Y135.997
G1 F1500 X44.002 Y161.297 E121.2077
G0 F7200 X44.002 Y160.675
G1 F1500 X19.324 Y135.997 E122.4845
G0 F7200 X19.946 Y135.997
G1 F1500 X44.002 Y160.052 E123.7292
G0 F7200 X44.002 Y159.430
G1 F1500 X20.569 Y135.997 E124.9416
G0 F7200 X21.191 Y135.997
G1 F1500 X44.002 Y158.808 E126.1219
G0 F7200 X44.002 Y158.186
G1 F1500 X21.813 Y135.997 E127.2700
G0 F7200 X22.435 Y135.997
G1 F1500 X44.002 Y157.563 E128.3858
G0 F7200 X44.002 Y156.941
G1 F1500 X23.058 Y135.997 E129.4695
G0 F7200 X23.680 Y135.997
G1 F1500 X44.002 Y156.319 E130.5210
G0 F7200 X44.002 Y155.697
G1 F1500 X24.302 Y135.997 E131.5402
G0 F7200 X24.924 Y135.997
G1 F1500 X44.002 Y155.074 E132.5273
G0 F7200 X44.002 Y154.452
G1 F1500 X25.547 Y135.997 E133.4822
G0 F7200 X26.169 Y135.997
G1 F1500 X44.002 Y153.830 E134.4049
G0 F7200 X44.002 Y153.208
G1 F1500 X26.791 Y135.997 E135.2954
G0 F7200 X27.413 Y135.997
G1 F1500 X44.002 Y152.585 E136.1537
G0 F7200 X44.002 Y151.963
G1 F1500 X28.036 Y135.997 E136.9798
G0 F7200 X28.658 Y135.997
G1 F1500 X44.002 Y151.341 E137.7737
G0 F7200 X44.002 Y150.719
G1 F1500 X29.280 Y135.997 E138.5354
G0 F7200 X29.902 Y135.997
G1 F1500 X44.002 Y150.096 E139.2649
G0 F7200 X44.002 Y149.474
G1 F1500 X30.525 Y135.997 E139.9622
G0 F7200 X31.147 Y135.997
G1 F1500 X44.002 Y148.852 E140.6274
G0 F7200 X44.002 Y148.230
G1 F1500 X31.769 Y135.997 E141.2603
G0 F7200 X32.391 Y135.997
G1 F1500 X44.002 Y147.607 E141.8610
G0 F7200 X44.002 Y146.985
G1 F1500 X33.014 Y135.997 E142.4296
G0 F7200 X33.636 Y135.997
G1 F1500 X44.002 Y146.363 E142.9659
G0 F7200 X44.002 Y145.741
G1 F1500 X34.258 Y135.997 E143.4701
G0 F7200 X34.880 Y135.997
G1 F1500 X44.002 Y145.118 E143.9420
G0 F7200 X44.002 Y144.496
G1 F1500 X35.503 Y135.997 E144.3818
G0 F7200 X36.125 Y135.997
G1 F1500 X44.002 Y143.874 E144.7893
G0 F7200 X44.002 Y143.252
G1 F1500 X36.747 Y135.997 E145.1647
G0 F7200 X37.369 Y135.997
G1 F1500 X44.002 Y142.629 E145.5079
G0 F7200 X44.002 Y142.007
G1 F1500 X37.992 Y135.997 E145.8188
G0 F7200 X38.614 Y135.997
G1 F1500 X44.002 Y141.385 E146.0976
G0 F7200 X44.002 Y140.763
G1 F1500 X39.236 Y135.997 E146.3442
G0 F7200 X39.858 Y135.997
G1 F1500 X44.002 Y140.140 E146.5586
G0 F7200 X44.002 Y139.518
G1 F1500 X40.481 Y135.997 E146.7408
G0 F7200 X41.103 Y135.997
G1 F1500 X44.002 Y138.896 E146.8908
G0 F7200 X44.002 Y138.274
G1 F1500 X41.725 Y135.997 E147.0086
G0 F7200 X42.347 Y135.997
G1 F1500 X44.002 Y137.651 E147.0942
G0 F7200 X44.002 Y137.029
G1 F1500 X42.970 Y135.997 E147.1476
G0 F7200 X43.592 Y135.997
G1 F1500 X44.002 Y136.407 E147.1688
G1 F2100 E146.1688
G1 F900 Z0.400
G0 F7200 X15.910 Y255.910
M204 S600.00
;TYPE:WALL-INNER
;WIDTH:0.440
G1 F900 Z0.200
G1 F2100 E147.1688
G1 F1500 X44.090 Y255.910 E148.1998
G1 X44.090 Y284.090 E149.2308
G1 X15.910 Y284.090 E150.2618
G1 X15.910 Y255.910 E151.2928
M204 S800.00
G0 F7200 X15.470 Y255.470
M204 S600.00
;TYPE:WALL-OUTER
;WIDTH:0.440
G1 F1500 X44.530 Y255.470 E152.3560
G1 X44.530 Y284.530 E153.4192
G1 X15.470 Y284.530 E154.4824
G1 X15.470 Y255.470 E155.5456
G1 F2100 E154.5456
G1 F900 Z0.400
M204 S800.00
G0 F7200 X15.570 Y255.480
G0 X43.497 Y255.997
;TYPE:SOLID-FILL
;WIDTH:0.440
G1 F900 Z0.200
G1 F2100 E155.5456
G1 F1500 X44.002 Y256.502 E155.5717
G0 F7200 X44.002 Y257.124
G1 F1500 X42.875 Y255.997 E155.6300
G0 F7200 X42.253 Y255.997
G1 F1500 X44.002 Y257.746 E155.7205
G0 F7200 X44.002 Y258.369
G1 F1500 X41.630 Y255.997 E155.8432
G0 F7200 X41.008 Y255.997
G1 F1500 X44.002 Y258.991 E155.9981
G0 F7200 X44.002 Y259.613
G1 F1500 X40.386 Y255.997 E156.1852
G0 F7200 X39.764 Y255.997
G1 F1500 X44.002 Y260.235 E156.4045
G0 F7200 X44.002 Y260.858
G1 F1500 X39.141 Y255.997 E156.6560
G0 F7200 X38.519 Y255.997
G1 F1500 X44.002 Y261.480 E156.9397
G0 F7200 X44.002 Y262.102
G1 F1500 X37.897 Y255.997 E157.2556
G0 F7200 X37.275 Y255.997
G1 F1500 X44.002 Y262.724 E157.6037
G0 F7200 X44.002 Y263.347
G1 F1500 X36.652 Y255.997 E157.9840
G0 F7200 X36.030 Y255.997
G1 F1500 X44.002 Y263.969 E158.3964
G0 F7200 X44.002 Y264.591
G1 F1500 X35.408 Y255.997 E158.8411
G0 F7200 X34.786 Y255.997
G1 F1500 X44.002 Y265.213 E159.3179
G0 F7200 X44.002 Y265.836
G1 F1500 X34.163 Y255.997 E159.8270
G0 F7200 X33.541 Y255.997
G1 F1500 X44.002 Y266.458 E160.3683
G0 F7200 X44.002 Y267.080
G1 F1500 X32.919 Y255.997 E160.9417
G0 F7200 X32.297 Y255.997
G1 F1500 X44.002 Y267.702 E161.5473
G0 F7200 X44.002 Y268.325
G1 F1500 X31.674 Y255.997 E162.1852
G0 F7200 X31.052 Y255.997
G1 F1500 X44.002 Y268.947 E162.8552
G0 F7200 X44.002 Y269.569
G1 F1500 X30.430 Y255.997 E163.5575
G0 F7200 X29.808 Y255.997
G1 F1500 X44.002 Y270.191 E164.2919
G0 F7200 X44.002 Y270.814
G1 F1500 X29.185 Y255.997 E165.0585
G0 F7200 X28.563 Y255.997
G1 F1500 X44.002 Y271.436 E165.8573
G0 F7200 X44.002 Y272.058
G1 F1500 X27.941 Y255.997 E166.6883
G0 F7200 X27.319 Y255.997
G1 F1500 X44.002 Y272.680 E167.5515
G0 F7200 X44.002 Y273.303
G1 F1500 X26.696 Y255.997 E168.4469
G0 F7200 X26.074 Y255.997
G1 F1500 X44.002 Y273.925 E169.3745
G0 F7200 X44.002 Y274.547
G1 F1500 X25.452 Y255.997 E170.3343
G0 F7200 X24.830 Y255.997
G1 F1500 X44.002 Y275.169 E171.3263
G0 F7200 X44.002 Y275.792
G1 F1500 X24.207 Y255.997 E172.3505
G0 F7200 X23.585 Y255.997
G1 F1500 X44.002 Y276.414 E173.4069
G0 F7200 X44.002 Y277.036
G1 F1500 X22.963 Y255.997 E174.4955
G0 F7200 X22.341 Y255.997
G1 F1500 X44.002 Y277.658 E175.6162
G0 F7200 X44.002 Y278.281
